X:1
T:Title
%%score { 1 | 2 }
L:1/8
Q:1/4=108
M:4/4
K:Ab
V:1 treble nm="Grand Piano"
V:2 treble 
V:1
 c2 c2 c2 [ce]2 | [ce]2 [Bd]2 [Bd]4 | [GB]2 [GB]2 [GB]2 [Bd]2 | [Bd]2 c2 c4 | c2 c2 c2 [ce]2 | %5
 [Be]2 [Bd]2 [Bd]2 [FB]2 | [EA]2 [Ec]2 [DB]2 [B,G]2 | [CA]4 [CA]4 |] %8
V:2
 [A,A]2 [A,A]2 [A,A]2[K:bass] A,2 | E,2 E,2 E,4 | E,2 E,2 E,2 E,2 | A,2[K:treble] [A,A]2 [A,A]4 | %4
 [A,A]2 [A,A]2 [A,A]2[K:bass] A,2 | D,2 D,2 D,2 D,2 | C,2 A,,2 E,2 E,2 | A,,4 A,,4 |] %8

